!!!!SEGMENT: pl-kk--kk-i-7--056-001_certon-pierre--missa-regnum-mundi-kyrie.krn
!!!cenid: 16xx:887
!!!COM: Certon, Pierre
!!!COM-rismID: pe30006023
!!!CDT: ~1510-1572/02/23
!!!CNT: French
!!!OPR: Missa Regnum Mundi
!!!OTL: Kyrie
!!!OMV: 001
!!!PDT:
!!!AGN: Sacred; Mass
!!!SMS-siglum: PL-Kk
!!!SMS-shelfmark: Kk.I.7
!!!SMS-shelfwork: 056-001 M
!!!SMS-variant:
!!!SMS-altvar:
!!!NIFC-rismSourceID: 300258133
!!!NIFC-islandoraID: pl-kk:1956
!!!URL-pdf-islandora: https://repozytorium.nifc.pl/islandora/object/pl-kk%3A1956/datastream/PDF/view
!!!URL-scan: https://polish.musicsources.pl/pl/lokalizacje/galeria/rekopisy/6140 @EN{Scan on Polish Music Sources Website} @PL{Skany w portalu Dziedzictwo Muzyki Polskiej w otwartym dostępie}
!!!ONB-nifc: UWAGA: C (skan 0054-0055, s.100-103), A (0138-0139, s.96-99), T(0214-0216, s.91-94), B(0301-0302, s.89-91). Części Mszy: 1. Kyrie, 2. Et in terra, 3. Sanctus, 4. Agnus Dei. Agnus III" rozpisany na 5 głosów. Dodatkowy głos zapisany w księdze T na stronie 94
!!!AIN: 1 alto 1 bass 1 soprn 1 tenor
!!!key:
**kern	**text	**kern	**text	**kern	**text	**kern	**text
*part4	*part4	*part3	*part3	*part2	*part2	*part1	*part1
*staff4	*staff4	*staff3	*staff3	*staff2	*staff2	*staff1	*staff1
*Ibass	*	*Itenor	*	*Ialto	*	*Isoprn	*
*I"BASSVS.	*	*I"TENOR.	*	*I"ALTVS.	*	*I"CANTVS.	*
*I'B	*	*I'T	*	*I'A	*	*I'S	*
*clefC4	*	*clefC3	*	*clefC2	*	*clefG2	*
*k[b-]	*	*k[b-]	*	*k[b-]	*	*k[b-]	*
*g:	*	*g:	*	*g:	*	*g:	*
*M2/1	*	*M2/1	*	*M2/1	*	*M2/1	*
*met(C|)	*	*met(C|)	*	*met(C|)	*	*met(C|)	*
=1-	=1-	=1-	=1-	=1-	=1-	=1-	=1-
!	!	!	!	!LO:TX:t=P:problem=w źródle znaki przykluczowe B- b-, zapisane jeden nad drugim, w pionie	!	!	!
0G	Ky-	0G	Ky-	0d	Ky-	0g	Ky-
=2-	=2-	=2-	=2-	=2-	=2-	=2-	=2-
*	*	*	*	*	*	*lig	*
!	!	!	!	!	!	!LO:TX:t=P:problem=♭ above	!
1G	-ri-	1d	-ri-	1g	-ri-	1b-X	-ri-
*	*	*	*	*lig	*	*	*
1E	-e	1en	-e	1g	-e-	1cc	.
*	*	*	*	*	*	*Xlig	*
=3-	=3-	=3-	=3-	=3-	=3-	=3-	=3-
*	*	*2\right	*	*	*	*2\right	*
0D	e-	2.f\	.	1a	.	2.dd\	-e
.	.	4e\	e-	.	.	4cc\	.
*	*	*	*	*Xlig	*	*	*
.	.	4d\	.	0f	-lei-	4b-/	.
.	.	4c\	.	.	.	4a/	.
.	.	2.d\	-lei-	.	.	2.b-/	e-
=4-	=4-	=4-	=4-	=4-	=4-	=4-	=4-
*lig	*	*	*	*	*	*	*
1F	-lei-	.	.	.	.	.	.
.	.	4c/	.	.	.	4a/	.
.	.	4B-/	.	.	.	1a	-lei-
.	.	4A/	.	.	.	.	.
!	!	!	!	!LO:TX:t=P:problem=kreska pseudotaktowa	!	!	!
1G	.	1B-	.	0d	-son	.	.
.	.	.	.	.	.	2g/	.
*Xlig	*	*	*	*	*	*	*
=5-	=5-	=5-	=5-	=5-	=5-	=5-	=5-
!	!	!LO:TX:t=P:global:problem=rozdzielacz słów	!	!	!	!LO:TX:t=P:problem=kreska pseudotaktowa	!
2.D/	.	2A,/	son	.	.	1a	-son
.	.	2.f\	.	.	.	.	.
!LO:TX:t=P:problem=kreska pseudotaktowa	!	!	!	!	!	!	!
4E/	.	.	.	.	.	.	.
2F/	.	.	.	2re	.	00r	.
.	.	4e\	Ky-	.	.	.	.
*	*	*	*	*	*ij	*	*
2G/	.	1d\	.	1g\	Ky-	.	.
=6-	=6-	=6-	=6-	=6-	=6-	=6-	=6-
1E	-son	.	.	.	.	.	.
*	*	*	*	*2\right	*	*	*
!	!	!LO:TX:t=P:problem=kreska pseudotaktowa	!	!	!	!	!
.	.	2c\	-ri-	2g\	-ri-	.	.
!LO:TX:t=P:global:problem=rozdzielacz słów	!	!	!	!	!	!	!
2D,/	.	2.d\	-e	2f\	-e-	.	.
1d\	.	.	.	2f\	.	.	.
.	.	4e\	.	.	.	.	.
=7-	=7-	=7-	=7-	=7-	=7-	=7-	=7-
.	.	2f\	e-	1b-	.	.	.
*2\right	*	*	*	*	*	*	*
!LO:TX:t=P:problem=kreska pseudotaktowa	!	!	!	!	!	!	!
2B-\	Ky-	2g\	.	.	.	.	.
2c\	-ri-	2e\	-lei-	2a\	-lei-	2r	.
2d\	-e	1f\	.	1a\	.	1dd\	Ky-
=8-	=8-	=8-	=8-	=8-	=8-	=8-	=8-
1B-	.	.	.	.	.	.	.
.	.	4e\	-son	2g\	.	2dd\	-ri-
.	.	4d\	.	.	.	.	.
!	!	!LO:TX:t=P:problem=kreska pseudotaktowa	!	!	!	!	!
!	!	!	!	!LO:TX:t=P:problem=kreska pseudotaktowa	!	!	!
2.A/	.	1e	.	0a	-son	2cc\	-e
*	*	*	*	*	*Xij	*	*
.	.	.	.	.	.	2cc\	.
!LO:TX:t=P:problem=kreska pseudotaktowa	!	!	!	!	!	!	!
4G/	.	.	.	.	.	.	.
=9-	=9-	=9-	=9-	=9-	=9-	=9-	=9-
2F/	e-	2r	.	.	.	1.ff	e-
*	*	*	*ij	*	*	*	*
4E/	-lei-	1d	Ky-	.	.	.	.
4D/	.	.	.	.	.	.	.
2F/	.	.	.	1rb	.	.	.
2G/	.	2d\	-ri-	.	.	4ee\	-lei-
.	.	.	.	.	.	4dd\	.
=10-	=10-	=10-	=10-	=10-	=10-	=10-	=10-
!	!	!	!	!LO:TX:t=P:problem=kreska pseudotaktowa	!	!	!
1A	.	2c\	-e	0rb	.	2ff\	.
!	!	!	!	!	!	!LO:TX:t=P:problem=kreska pseudotaktowa	!
.	.	2c\	e-	.	.	2ee\	.
!LO:TX:t=P:problem=kreska pseudotaktowa	!	!	!	!	!	!	!
1D	-son	1f	-lei-	.	.	2dd\	.
.	.	.	.	.	.	4a/	.
.	.	.	.	.	.	4b-/	.
=11-	=11-	=11-	=11-	=11-	=11-	=11-	=11-
0r	.	2.e\	.	2rg	.	4cc/	.
.	.	.	.	.	.	4a/	.
.	.	.	.	1g	Ky-	1dd	.
.	.	4d\	.	.	.	.	.
!	!	!LO:TX:t=P:problem=kreska pseudotaktowa	!	!	!	!	!
.	.	1e	.	.	.	.	.
.	.	.	.	2g\	-ri-	2cc\	.
=12-	=12-	=12-	=12-	=12-	=12-	=12-	=12-
!	!	!	!	!	!	!LO:TX:t=P:problem=kreska pseudotaktowa	!
1r	.	2d\	.	2f\	-e	0dd	-son
!	!	!	!	!LO:TX:t=P:problem=kreska pseudotaktowa	!	!	!
.	.	1B-	.	2f\	.	.	.
2rF	.	.	.	2.b-\	e-	.	.
*	*ij	*	*	*	*	*	*
1G/	Ky-	4A/	.	.	.	.	.
.	.	4G/	.	4a\	-lei-	.	.
=13-	=13-	=13-	=13-	=13-	=13-	=13-	=13-
!	!	!LO:TX:t=P:problem=kreska pseudotaktowa	!	!	!	!	!
.	.	1d	-son	4g\	.	1b-	e-
*	*	*	*Xij	*	*	*	*
.	.	.	.	4f\	.	.	.
2G/	-ri-	.	.	2g\	.	.	.
2F/	-e	2r	.	2a\	.	2a/	.
!LO:TX:t=P:problem=kreska pseudotaktowa	!	!	!	!	!	!	!
2F/	e-	1d\	Ky-	1f\	.	1a/	-lei-
=14-	=14-	=14-	=14-	=14-	=14-	=14-	=14-
*lig	*	*	*	*	*	*	*
1B-	-lei-	.	.	.	.	.	.
.	.	2d\	-ri-	4e/	.	2g/	.
.	.	.	.	4d/	.	.	.
!	!	!	!	!	!	!LO:TX:t=P:problem=kreska pseudotaktowa	!
1A	.	2c\	-e	2e\	.	0a	-son
.	.	2c\	e-	2.f\	.	.	.
*Xlig	*	*	*	*	*	*	*
=15-	=15-	=15-	=15-	=15-	=15-	=15-	=15-
2.D/	.	1.f	.	.	.	.	.
.	.	.	.	4e/	.	.	.
.	.	.	.	2.d/	.	.	.
4E/	.	.	.	.	.	.	.
2F/	.	.	.	.	.	1rff	.
.	.	.	.	4c/	.	.	.
2.G/	.	4e\	.	2.B-/	.	.	.
!	!	!LO:TX:t=P:problem=kreska pseudotaktowa	!	!	!	!	!
.	.	4d\	.	.	.	.	.
!	!	!LO:LB:g=original	!	!	!	!	!
=16-	=16-	=16-	=16-	=16-	=16-	=16-	=16-
.	.	2e\	.	.	.	2r	.
4F/	.	.	.	4A/	.	.	.
4E/	.	1d	.	4G/	.	1g	Ky-
4D/	.	.	.	4F/	.	.	.
*	*	*	*	*lig	*	*	*
1E	.	.	.	1G	.	.	.
.	.	2c\	.	.	.	2g/	-ri-
=17-	=17-	=17-	=17-	=17-	=17-	=17-	=17-
1D	.	2.d\	.	1A	.	2f/	-e
.	.	.	.	.	.	2f/	e-
.	.	4c/	.	.	.	.	.
*	*	*	*	*Xlig	*	*	*
!LO:TX:t=P:problem=kreska pseudotaktowa	!	!	!	!LO:TX:t=P:global:problem=rozdzielacz słów; w źródle zapisywane na pięciolinii	!	!	!
1G	.	4B-/	.	2G,/	-son	1b-	.
.	.	4A/	.	.	.	.	.
.	.	2B-/	.	2d/	e-	.	.
=18-	=18-	=18-	=18-	=18-	=18-	=18-	=18-
2C/	.	4c/	.	2e\	-lei-	2a/	-lei-
.	.	4B-/	.	.	.	.	.
2E/	.	4A/	.	2c/	.	1g	.
.	.	4G/	.	.	.	.	.
1D	.	1A	-lei-	1d	.	.	.
.	.	.	.	.	.	2f/	.
=19-	=19-	=19-	=19-	=19-	=19-	=19-	=19-
0G;>	-son	0Bn;>	-son.	0d;;	-ſon.	0g;>	-son.
*	*Xij	*	*	*	*	*	*
!LO:LB:g=original	!	!	!	!LO:LB:g=original	!	!LO:LB:g=original	!
=20||	=20||	=20||	=20||	=20||	=20||	=20||	=20||
*M2/1	*	*M2/1	*	*M2/1	*	*M2/1	*
*met(C|)	*	*met(C|)	*	*met(C|)	*	*met(C|)	*
!	!	!LO:TX:t=P:problem=kreska pseudotaktowa	!	!	!	!	!
1G	Chri-	0r	.	00r	.	00r	.
2G/	-ste	.	.	.	.	.	.
2F/	.	.	.	.	.	.	.
=21-	=21-	=21-	=21-	=21-	=21-	=21-	=21-
2.G/	e-	1d	Chri-	.	.	.	.
!LO:TX:t=P:problem=kreska pseudotaktowa	!	!	!	!	!	!	!
4A/	-lei-	.	.	.	.	.	.
4B-\	.	2d\	-ste	.	.	.	.
4G/	.	.	.	.	.	.	.
2A\	.	2c\	.	.	.	.	.
=22-	=22-	=22-	=22-	=22-	=22-	=22-	=22-
!	!	!	!	!LO:TX:t=P:problem=kreska pseudotaktowa	!	!	!
2G/	.	2.d\	e-	00r	.	00r	.
!LO:TX:t=P:problem=kreska pseudotaktowa	!	!	!	!	!	!	!
2B-\	.	.	.	.	.	.	.
.	.	4e\	.	.	.	.	.
2A\	.	4f\	.	.	.	.	.
.	.	4d\	.	.	.	.	.
!	!	!LO:TX:t=P:problem=kreska pseudotaktowa	!	!	!	!	!
1G/	.	2e\	.	.	.	.	.
=23-	=23-	=23-	=23-	=23-	=23-	=23-	=23-
.	.	2d\	.	.	.	.	.
2F/	.	2f\	.	.	.	.	.
1G	.	2e\	.	.	.	.	.
.	.	1d\	-lei-	.	.	.	.
=24-	=24-	=24-	=24-	=24-	=24-	=24-	=24-
!	!	!	!	!	!	!LO:TX:t=P:problem=kreska pseudotaktowa	!
1E	-son	.	.	1g	Chri-	1r	.
.	.	2c\	.	.	.	.	.
!LO:TX:t=P:problem=kreska pseudotaktowa	!	!	!	!	!	!	!
*	*	*lig	*	*	*	*	*
1D	.	1d	.	2g\	.	1dd	Chri-
.	.	.	.	2f\	-ste	.	.
=25-	=25-	=25-	=25-	=25-	=25-	=25-	=25-
0r	.	1e	.	2.g\	.	2dd\	-ste
.	.	.	.	.	.	2cc\	.
.	.	.	.	4a\	e-	.	.
*	*	*Xlig	*	*	*	*	*
!	!	!	!	!	!	!LO:TX:t=P:problem=kreska pseudotaktowa	!
.	.	1d	.	4b-\	.	1dd	e-
.	.	.	.	4g\	.	.	.
!	!	!	!	!LO:TX:t=P:problem=kreska pseudotaktowa	!	!	!
.	.	.	.	2a\	.	.	.
=26-	=26-	=26-	=26-	=26-	=26-	=26-	=26-
!	!	!LO:TX:t=P:problem=kreska pseudotaktowa	!	!	!	!	!
2rc	.	1G	-son	2g\	.	2.dd\	lei-
2d\	e-	.	.	2b-\	-lei-	.	.
.	.	.	.	.	.	4ee\	.
2d\	-lei-	1rc	.	4a\	.	4ff\	.
.	.	.	.	4g\	.	4dd\	.
2c\	-son	.	.	1g\	.	2ee\	.
=27-	=27-	=27-	=27-	=27-	=27-	=27-	=27-
!LO:TX:t=P:problem=kreska pseudotaktowa	!	!	!	!	!	!	!
1d	.	2rA	.	.	.	2dd\	.
*	*	*	*ij	*	*	*	*
.	.	2d\	Chri-	2f\	-son	1ff	.
!	!	!	!	!LO:TX:t=P:problem=kreska pseudotaktowa	!	!	!
00r	.	2d\	-ste	1g	.	.	.
.	.	2c\	.	.	.	1ee\	.
=28-	=28-	=28-	=28-	=28-	=28-	=28-	=28-
.	.	2.d\	e-	1rb	.	.	.
.	.	.	.	.	.	1dd	.
.	.	4e\	.	.	.	.	.
.	.	4f\	.	2r	.	.	.
.	.	4d\	.	.	.	.	.
!	!	!LO:TX:t=P:problem=kreska pseudotaktowa	!	!	!	!	!
.	.	2e\	.	2g\	X-	2cc\	.
!	!	!LO:LB:g=original	!	!	!	!	!
=29-	=29-	=29-	=29-	=29-	=29-	=29-	=29-
!	!	!	!	!	!	!LO:TX:t=P:problem=kreska pseudotaktowa	!
.	.	1d	lei-	2g\	-te	00dd	-son
!	!	!	!	!LO:TX:t=P:problem=kreska pseudotaktowa	!	!	!
.	.	.	.	2f\	e-	.	.
!	!	!LO:TX:t=P:problem=kreska pseudotaktowa	!	!	!	!	!
2rF	.	1G	-son	2.g\	-lei-	.	.
*	*	*	*Xij	*	*	*	*
2G/	X-	.	.	.	.	.	.
.	.	.	.	4a\	.	.	.
=30-	=30-	=30-	=30-	=30-	=30-	=30-	=30-
2G/	-te	1r	.	4b-\	.	.	.
.	.	.	.	4g\	.	.	.
!	!	!	!	!LO:TX:t=P:problem=kreska pseudotaktowa	!	!	!
2F/	.	.	.	2a\	.	.	.
2.G/	e-	2r	.	2b-\	.	.	.
.	.	2d\	Chri-	1g\	.	.	.
!LO:TX:t=P:problem=kreska pseudotaktowa	!	!	!	!	!	!	!
4A/	-lei-	.	.	.	.	.	.
=31-	=31-	=31-	=31-	=31-	=31-	=31-	=31-
4B-\	.	2d\	-ste	.	.	00r	.
4G/	.	.	.	.	.	.	.
2A\	.	2c\	.	2f\	-son	.	.
2G,/	-son	2.d\	e-	2g,\	.	.	.
*	*ij	*	*	*	*ij	*	*
2B-\	X-	.	.	2G/	X-	.	.
!	!	!LO:TX:t=P:problem=kreska pseudotaktowa	!	!	!	!	!
.	.	4e\	.	.	.	.	.
=32-	=32-	=32-	=32-	=32-	=32-	=32-	=32-
2A\	-te	4f\	.	2c/	-te	.	.
.	.	4d\	.	.	.	.	.
1G	e-	2e\	.	1B-	e-	.	.
.	.	2d\	-lei-	.	.	.	.
2F/	.	2f\	.	2A/	.	.	.
=33-	=33-	=33-	=33-	=33-	=33-	=33-	=33-
!	!	!	!	!	!	!LO:TX:t=P:problem=kreska pseudotaktowa	!
!	!	!	!	!LO:N:vis=0	!	!	!
1G	-lei-	2e\	.	1B-	-lei-	1r	.
.	.	1d	-son	.	.	.	.
!LO:TX:t=P:problem=kreska pseudotaktowa	!	!	!	!	!	!	!
!	!	!	!	!LO:N:vis=0	!	!	!
1E	.	.	.	1G	.	1g	X-
!	!	!LO:TX:t=P:problem=kreska pseudotaktowa	!	!	!	!	!
.	.	2c\	.	.	.	.	.
=34-	=34-	=34-	=34-	=34-	=34-	=34-	=34-
2.D/	.	1d	.	2A,/	-son	2g/	-te
*	*	*	*	*	*Xij	*	*
.	.	.	.	2d/	Chri-	2f/	.
4F/	.	.	.	.	.	.	.
1E	.	2rA	.	2d/	.	2.g/	e-
*	*	*	*ij	*	*	*	*
.	.	2G/	Chri-	2c/	-ste	.	.
.	.	.	.	.	.	4a/	.
=35-	=35-	=35-	=35-	=35-	=35-	=35-	=35-
!LO:TX:t=P:problem=kreska pseudotaktowa	!	!	!	!	!	!	!
1D	son	2G/	-ste	4d/	.	4b-/	.
*	*Xij	*	*	*	*	*	*
.	.	.	.	4e/	.	4g/	.
!	!	!	!	!	!	!LO:TX:t=P:problem=kreska pseudotaktowa	!
.	.	2F/	.	4f/	.	2a/	.
!	!	!	!	!LO:TX:t=P:problem=kreska pseudotaktowa	!	!	!
.	.	.	.	4d/	.	.	.
2rF	.	1G	e-	2e/	e-	2g/	-lei-
2G/	X-	.	.	2d/	.	2b-/	.
=36-	=36-	=36-	=36-	=36-	=36-	=36-	=36-
2F/	-te	2A/	.	2f\	.	2a/	.
!	!	!LO:TX:t=P:problem=kreska pseudotaktowa	!	!	!	!	!
2G/	.	2B-/	.	2.e/	-lei-	2.g/	.
2C/	e-	2c/	.	.	.	.	.
.	.	.	.	4d/	.	8f#X/L	.
.	.	.	.	.	.	8e/J	.
2D/	-lei-	2.B-/	.	1d/	.	2f#/	.
=37-	=37-	=37-	=37-	=37-	=37-	=37-	=37-
*	*	*	*	*	*	*lig	*
1E	.	.	.	.	.	0g	.
.	.	4A/	.	.	.	.	.
.	.	4G/	.	4c/	.	.	.
.	.	4F/	.	4B-/	.	.	.
!	!	!	!	!LO:TX:t=P:problem=♯ above	!	!	!
1%5D;>	-son.	1G	.	1c#X	.	.	.
=38-	=38-	=38-	=38-	=38-	=38-	=38-	=38-
*	*	*lig	*	*	*	*	*
!	!	!	!	!	!	!LO:TX:t=P:problem=♯ above	!
.	.	1A	-lei-	00d;<	-son.	00f#X;	.
.	.	1B-	.	.	.	.	.
*	*	*Xlig	*	*	*	*Xlig	*
=39-	=39-	=39-	=39-	=39-	=39-	=39-	=39-
.	.	0A;>	-son	.	.	.	.
*	*	*	*Xij	*	*	*	*
!LO:LB:g=original	!	!	!	!LO:LB:g=original	!	!	!
=40||-	=40||-	=40||-	=40||-	=40||-	=40||-	=40||-	=40||-
*M2/1	*	*M2/1	*	*M2/1	*	*M2/1	*
*met(C|)	*	*met(C|)	*	*met(C|)	*	*met(C|)	*
!	!	!	!	!LO:TX:t=P:problem=kreska pseudotaktowa	!	!	!
00r	.	0r	.	1r	.	1g	Ky-
!	!	!	!	!	!	!LO:TX:t=P:problem=♭ above	!
.	.	.	.	1g	Ky-	2.b-X\	-ri-
.	.	.	.	.	.	4cc\	-e
=41-	=41-	=41-	=41-	=41-	=41-	=41-	=41-
.	.	1d	Ky-	1b-	-ri-	4dd\	.
.	.	.	.	.	.	4ee\	.
*	*	*	*	*	*	*custos:ff	*
!	!	!	!	!	!	!LO:TX:t=P:problem=kreska pseudotaktowa	!
.	.	.	.	.	.	[<2ff\	.
!	!	!	!	!LO:TX:t=P:problem=kreska pseudotaktowa	!	!LO:N:xstem:cue	!
.	.	1f	-ri-	1a	-e	4ff\]	.
.	.	.	.	.	.	4ee\	.
.	.	.	.	.	.	1dd\	.
=42-	=42-	=42-	=42-	=42-	=42-	=42-	=42-
0r	.	1e	-e	2r	.	.	.
!	!	!	!	!	!	!LO:TX:t=P:problem=kreska pseudotaktowa	!
.	.	.	.	2g\	Ky-	2cc\	e-
.	.	2.d\	e-	1b-	-ri-	2dd\	-lei-
.	.	.	.	.	.	2dd\	.
.	.	8c/L	.	.	.	.	.
.	.	8B-/J	.	.	.	.	.
=43-	=43-	=43-	=43-	=43-	=43-	=43-	=43-
!LO:TX:t=P:problem=kreska pseudotaktowa	!	!	!	!	!	!	!
1r	.	2c\	-lei-	1a	-e	2ee\	.
.	.	2d\	.	.	.	2ff\	.
!	!	!LO:TX:t=P:problem=kreska pseudotaktowa	!	!	!	!	!
2rF	.	1G	-son	1g	.	2dd\	.
2G/	Ky-	.	.	.	.	2.ee\	.
!	!	!LO:LB:g=original	!	!	!	!	!
=44-	=44-	=44-	=44-	=44-	=44-	=44-	=44-
!	!	!LO:TX:t=P:problem=kreska pseudotaktowa	!	!	!	!	!
1B-	-ri-	0r	.	2f\	e-	.	.
.	.	.	.	.	.	4dd\	.
.	.	.	.	4e/	-lei-	1dd	.
.	.	.	.	4d/	.	.	.
!LO:TX:t=P:problem=kreska pseudotaktowa	!	!	!	!LO:TX:t=P:problem=kreska pseudotaktowa	!	!	!
1A	-e	.	.	1e	-ſon	.	.
!	!	!	!	!	!	!LO:TX:t=P:problem=kreska pseudotaktowa	!
.	.	.	.	.	.	2cc\	.
=45-	=45-	=45-	=45-	=45-	=45-	=45-	=45-
!	!	!	!	!	!	!LO:TX:t=P:problem=kreska pseudotaktowa	!
1re	.	1G	Ky-	2rc	.	0.dd	-son
*	*	*	*	*	*ij	*	*
.	.	.	.	2.d/	Ky-	.	.
*	*ij	*	*	*	*	*	*
1G	Ky-	2.B-/	-ri-	.	.	.	.
.	.	.	.	4cny/	-ri-	.	.
.	.	.	.	4B-/	.	.	.
.	.	4c/	.	4A/	.	.	.
=46-	=46-	=46-	=46-	=46-	=46-	=46-	=46-
0B-	-ri-	4d\	-e	2G/	e	.	.
.	.	4e\	.	.	.	.	.
*	*	*	*	*lig	*	*	*
.	.	2.f\	e-	1d	e-	.	.
.	.	.	.	.	.	1rgg	.
.	.	4e\	.	.	.	.	.
.	.	1d\	-lei-	1g\	.	.	.
*	*	*	*	*Xlig	*	*	*
=47-	=47-	=47-	=47-	=47-	=47-	=47-	=47-
1A	-e	.	.	.	.	1a	/Ky-
*	*Xij	*	*	*	*	*	*
!	!	!	!	!LO:TX:t=P:problem=kreska pseudotaktowa	!	!	!
.	.	2c\	.	2f\	-lei-	.	.
!	!	!LO:TX:t=P:problem=kreska pseudotaktowa	!	!	!	!	!
1G	e-	1d	-son	2g,\	-ſon	0b-	-ri-
*	*	*	*	*	*Xij	*	*
.	.	.	.	2G/	.	.	.
=48-	=48-	=48-	=48-	=48-	=48-	=48-	=48-
1G	-lei-	2rA	.	2.B-/	Ky-	.	.
*	*	*	*ij	*	*	*	*
.	.	2G/	Ky-	.	.	.	.
.	.	.	.	4c/	.	.	.
4F/	.	2A/	-ri-	4d/	-ri-	1a	.
4G/	.	.	.	4e/	.	.	.
4A/	.	2c/	-e	2f\	-e-	.	.
4F/	.	.	.	.	.	.	.
=49-	=49-	=49-	=49-	=49-	=49-	=49-	=49-
4G/	.	2B-/	e-	4e/	.	1g	-e
4F/	.	.	.	4d/	.	.	.
4E/	.	1A	.	1d	.	.	.
4D/	.	.	.	.	.	.	.
!	!	!	!	!	!	!LO:TX:t=P:problem=kreska pseudotaktowa	!
1E	.	.	.	.	.	1g	e-
!	!	!LO:TX:t=P:problem=kreska pseudotaktowa	!	!	!	!	!
.	.	2G/	.	2c/	.	.	.
=50-	=50-	=50-	=50-	=50-	=50-	=50-	=50-
!LO:TX:t=P:problem=kreska pseudotaktowa	!	!	!	!	!	!	!
1D	-son	2A/	.	2d/	.	4fny/	.
.	.	.	.	.	.	4g/	.
.	.	2d\	.	2f\	.	4a/	.
.	.	.	.	.	.	4f/	.
0r	.	2c\	.	4e/	.	4g/	.
.	.	.	.	4d/	.	4f/	.
.	.	2B-/	-lei-	1d/	.	4e/	.
.	.	.	.	.	.	4d/	.
=51-	=51-	=51-	=51-	=51-	=51-	=51-	=51-
!	!	!LO:TX:t=P:problem=kreska pseudotaktowa	!	!	!	!	!
.	.	1A	-son	.	.	1e	-lei-
*	*	*	*Xij	*	*	*	*
!	!	!	!	!LO:TX:t=P:problem=♯ above	!	!	!
.	.	.	.	2c#X/	.	.	.
!	!	!	!	!LO:TX:t=P:problem=kreska pseudotaktowa	!	!	!
!	!	!	!	!	!	!LO:TX:t=P:problem=kreska pseudotaktowa	!
1G	Ky-	2rA	.	1d	-son	0d	-son/
.	.	2G/	Ky-	.	.	.	.
=52-	=52-	=52-	=52-	=52-	=52-	=52-	=52-
2G/	-ri-	2.B-/	-ri-	2rc	.	.	.
2G/	-e	.	.	2G/	.	.	.
.	.	4c/	.	.	.	.	.
4F/	.	4d\	-e	2A/	Ky-	1rb	.
4G/	.	4e\	.	.	.	.	.
!	!	!LO:TX:t=P:problem=kreska pseudotaktowa	!	!	!	!	!
4A/	.	2f\	.	2cny/	.	.	.
!LO:TX:t=P:problem=kreska pseudotaktowa	!	!	!	!	!	!	!
4F/	e-	.	.	.	.	.	.
=53-	=53-	=53-	=53-	=53-	=53-	=53-	=53-
4G/	.	4e\	e-	2B-/	-ri-	1g	Ky-
4F/	.	4d\	.	.	.	.	.
4E/	-lei-	1d	.	1A	.	.	.
4D/	.	.	.	.	.	.	.
1E	-son	.	.	.	.	2g/	-ri-
.	.	2c\	.	2G/	-e	2g/	-e
=54-	=54-	=54-	=54-	=54-	=54-	=54-	=54-
!LO:TX:t=P:problem=kreska pseudotaktowa	!	!	!	!	!	!	!
*	*	*	*	*lig	*	*	*
1D	.	4d\	-lei-	1A	.	2f/	.
.	.	4c\	.	.	.	.	.
!	!	!	!	!	!	!LO:TX:t=P:problem=kreska pseudotaktowa	!
.	.	4B-/	.	.	.	2d/	.
.	.	4A/	.	.	.	.	.
2rD	.	1B-	.	1d	.	2.f/	e-
*	*ij	*	*	*	*	*	*
2D/	Ky-	.	.	.	.	.	.
.	.	.	.	.	.	4g/	.
*	*	*	*	*Xlig	*	*	*
=55-	=55-	=55-	=55-	=55-	=55-	=55-	=55-
2.F/	-ri-	2.A/	.	2c/	e-	4a/	.
.	.	.	.	.	.	4b-/	.
.	.	.	.	2f\	.	2.cc\	-lei-
4G/	.	4B-/	.	.	.	.	.
2A/	-e	2c\	.	2e\	.	.	.
.	.	.	.	.	.	4b-/	.
!	!	!LO:TX:t=P:problem=kreska pseudotaktowa	!	!LO:TX:t=P:problem=kreska pseudotaktowa	!	!	!
2F/	e-	2d\	.	2f\	.	2.a/	.
!	!	!	!	!LO:LB:g=original	!	!	!
=56-	=56-	=56-	=56-	=56-	=56-	=56-	=56-
2G/	-lei-	2B-/	.	2d/	.	.	.
.	.	.	.	.	.	4g/	.
2E-X/	.	4A/	.	2c/	lei-	1g	.
.	.	4G/	.	.	.	.	.
1D	.	1A	.	1d	.	.	.
.	.	.	.	.	.	2f#X/	.
=57-	=57-	=57-	=57-	=57-	=57-	=57-	=57-
0G;>	-son	0Bn;>	-son.	0d;>	-son.	0g;>	-son.
*	*Xij	*	*	*	*	*	*
==	==	==	==	==	==	==	==
*-	*-	*-	*-	*-	*-	*-	*-
!!!system-decoration: [(s1,s2,s3,s4)]
!!!RDF**kern: > = above
!!!RDF**kern: < = below
!!!EED: Antoni Szymański
!!!EEV: 2021-03-17
!!!ENC: Andrzej Kubiczek
!!!END: 2021-03-03
